web/packages/design/src/ResourceIcon/assets/polleverywhere.svg

<svg width="72" height="72" viewBox="0 0 72 72" fill="none" xmlns="http://www.w3.org/2000/svg">
<g clip-path="url(#clip0_16965_14056)">
<path d="M36 0.00195625C28.8799 0.00195625 21.9197 2.11332 15.9995 6.06905C10.0793 10.0248 5.46511 15.6472 2.74035 22.2253C0.0155983 28.8035 -0.697322 36.0419 0.691746 43.0252C2.08081 50.0085 5.50948 56.4231 10.5442 61.4578C15.5789 66.4925 21.9934 69.9211 28.9768 71.3102C35.9601 72.6993 43.1985 71.9864 49.7766 69.2616C56.3547 66.5369 61.9772 61.9226 65.9329 56.0025C69.8886 50.0823 72 43.1221 72 36.0019C72.002 31.2738 71.0722 26.5916 69.2637 22.223C67.4552 17.8544 64.8035 13.885 61.4602 10.5417C58.1169 7.19841 54.1476 4.54675 49.7789 2.73828C45.4103 0.929807 40.7281 -1.5038e-05 36 0.00195625ZM25.311 54.5614H13.4475V45.6124L25.362 42.4939V54.5614H25.311ZM41.9295 54.5614H30.015V14.3705L41.9295 10.7915V54.5614ZM58.548 54.5614H46.6335V27.7114L58.548 24.1325V54.5614Z" fill="#007ACC"/>
<path d="M13.4473 54.5615H25.3108L25.3618 42.494L13.4473 45.6125V54.5615Z" fill="white"/>
<path d="M30.0148 54.5615H41.9293V10.7915L30.0148 14.3705V54.5615Z" fill="white"/>
<path d="M46.6333 54.5615H58.5478V24.1325L46.6333 27.7115V54.5615Z" fill="white"/>
</g>
<defs>
<clipPath id="clip0_16965_14056">
<rect width="72" height="72" fill="white" transform="translate(0 0.00195312)"/>
</clipPath>
</defs>
</svg>

<svg xmlns="http://www.w3.org/2000/svg" width="72" height="72" fill="none" viewBox="0 0 72 72"><g clip-path="url(#clip0_16965_14056)"><path fill="#007acc" d="M36 .002a36 36 0 1 0 36 36 35.984 35.984 0 0 0-36-36m-10.689 54.56H13.448v-8.95l11.914-3.118V54.56zm16.618 0H30.015V14.37l11.914-3.58zm16.619 0H46.633v-26.85l11.915-3.58z"/><path fill="#fff" d="M13.447 54.562h11.864l.05-12.068-11.914 3.118zm16.568 0h11.914v-43.77L30.015 14.37zm16.618 0h11.915v-30.43l-11.915 3.58z"/></g><defs><clipPath id="clip0_16965_14056"><path fill="#fff" d="M0 .002h72v72H0z"/></clipPath></defs></svg>
